public/images/logo.svg

<?xml version="1.0" encoding="UTF-8" standalone="no"?>
<svg width="238px" height="31px" viewBox="0 0 238 31" version="1.1" xmlns="http://www.w3.org/2000/svg" xmlns:xlink="http://www.w3.org/1999/xlink">
    <!-- Generator: Sketch 3.7.2 (28276) - http://www.bohemiancoding.com/sketch -->
    <title>logo</title>
    <desc>Created with Sketch.</desc>
    <defs></defs>
    <g id="Symbols" stroke="none" stroke-width="1" fill="none" fill-rule="evenodd">
        <g id="Menu-&amp;-tabs/Menu-bar" transform="translate(-25.000000, -24.000000)">
            <g id="logo" transform="translate(25.000000, 24.000000)">
                <path d="M42.15,6.33 L46.17,19.92 C46.23,20.1 46.29,20.28 46.29,20.46 C46.29,20.67 46.2,20.82 46.08,21.09 C45.81,21.72 45.39,22.32 44.85,22.83 C44.25,23.37 43.59,23.82 42.9,24.06 L44.1,27.45 C44.7,27.27 46.2,26.58 47.43,25.14 C49.02,23.25 49.98,20.4 50.7,17.64 L53.7,6.33 L49.86,6.33 L48.63,14.01 C48.51,14.82 48.39,15.66 48.27,16.41 L48.21,16.41 C48.09,15.63 47.97,14.82 47.82,13.95 L46.38,6.33 L42.15,6.33 Z M60.27,6.09 C57.36,6.09 54.6,8.43 54.6,13.71 C54.6,18.48 56.7,21.24 60.21,21.24 C62.43,21.24 65.82,19.74 65.82,13.62 C65.82,9 63.72,6.09 60.27,6.09 L60.27,6.09 Z M60.24,9.06 C61.56,9.06 61.89,11.61 61.89,13.62 C61.89,15.78 61.56,18.24 60.3,18.24 C58.89,18.24 58.5,16.14 58.5,13.62 C58.5,11.61 58.8,9.06 60.24,9.06 L60.24,9.06 Z M78.78,6.33 L74.85,6.33 L74.85,15.69 C74.85,16.2 74.76,16.65 74.61,16.95 C74.43,17.43 74.01,17.94 73.35,17.94 C72.24,17.94 71.88,16.71 71.88,14.79 L71.88,6.33 L67.92,6.33 L67.92,15.21 C67.92,19.17 69.06,21.24 71.85,21.24 C73.35,21.24 74.55,20.43 75.24,19.44 L75.3,19.44 L75.51,21 L78.9,21 C78.84,19.62 78.78,18.09 78.78,16.53 L78.78,6.33 Z M81.57,21 L85.53,21 L85.53,13.56 C85.53,12.93 85.59,12.42 85.68,12.09 C86.13,10.56 87.24,9.99 88.08,9.99 C88.41,9.99 88.68,9.99 88.92,10.05 L88.92,6.15 C88.68,6.09 88.47,6.09 88.08,6.09 C87,6.09 85.83,6.9 85.17,8.46 L85.08,8.46 L84.87,6.33 L81.45,6.33 C81.51,7.68 81.57,9.27 81.57,10.74 L81.57,21 Z M90.63,26.76 L92.94,26.76 L92.94,19.56 L93,19.56 C93.39,20.37 94.17,21.24 95.52,21.24 C97.8,21.24 100.02,19.08 100.02,13.71 C100.02,8.94 98.34,6.24 95.82,6.24 C94.68,6.24 93.54,6.78 92.76,8.34 L92.7,8.34 L92.58,6.48 L90.51,6.48 C90.54,7.5 90.63,8.79 90.63,11.01 L90.63,26.76 Z M92.94,11.97 C92.94,11.58 92.94,11.22 93,10.86 C93.15,9.54 94.08,8.22 95.13,8.22 C96.96,8.22 97.68,10.74 97.68,13.74 C97.68,16.68 97.08,19.32 95.16,19.32 C94.53,19.32 93.48,18.93 93.03,16.86 C92.94,16.53 92.94,16.11 92.94,15.66 L92.94,11.97 Z M102.6,21 L104.91,21 L104.91,12.96 C104.91,12.48 104.94,12.03 105,11.64 C105.24,9.96 106.32,8.61 107.79,8.61 C107.97,8.61 108.12,8.61 108.27,8.64 L108.27,6.27 C108.12,6.27 107.97,6.24 107.79,6.24 C106.44,6.24 105.21,7.38 104.73,8.76 L104.67,8.76 L104.55,6.48 L102.48,6.48 C102.51,7.56 102.6,9 102.6,10.23 L102.6,21 Z M112.38,21 L112.38,6.48 L110.07,6.48 L110.07,21 L112.38,21 Z M111.18,1.23 C110.43,1.23 109.83,1.83 109.83,2.73 C109.83,3.63 110.4,4.23 111.15,4.23 C112.02,4.23 112.59,3.63 112.56,2.73 C112.56,1.83 112.02,1.23 111.18,1.23 L111.18,1.23 Z M114.36,6.48 L118.14,21 L120.21,21 L123.99,6.48 L121.71,6.48 L119.91,14.64 C119.7,15.75 119.46,16.98 119.31,18.18 L119.22,18.18 C119.04,16.92 118.8,15.63 118.59,14.64 L116.76,6.48 L114.36,6.48 Z M133.83,21 C133.68,20.07 133.68,18.81 133.68,17.7 L133.68,11.43 C133.68,8.16 132.42,6.24 129.51,6.24 C128.07,6.24 126.72,6.75 126.12,7.2 L126.63,8.82 C127.32,8.37 128.13,8.07 129.03,8.07 C130.86,8.07 131.34,9.42 131.34,11.37 L131.34,11.82 C128.07,11.85 125.16,13.47 125.16,17.1 C125.16,19.59 126.66,21.24 128.61,21.24 C129.84,21.24 130.86,20.58 131.49,19.47 L131.58,19.47 L131.73,21 L133.83,21 Z M131.4,16.44 C131.4,16.68 131.4,16.98 131.34,17.25 C131.07,18.69 130.2,19.44 129.18,19.44 C128.37,19.44 127.41,18.75 127.41,16.86 C127.41,13.71 130.2,13.5 131.4,13.5 L131.4,16.44 Z M143.7,18.87 C143.16,19.11 142.65,19.26 142.02,19.26 C139.89,19.26 138.6,17.22 138.6,13.83 C138.6,10.98 139.65,8.22 141.96,8.22 C142.71,8.22 143.31,8.46 143.61,8.61 L144.06,6.72 C143.64,6.48 142.8,6.27 142.02,6.27 C138.39,6.27 136.29,9.66 136.29,13.83 C136.29,18.63 138.42,21.18 141.6,21.18 C142.62,21.18 143.49,20.94 144,20.64 L143.7,18.87 Z M144.75,6.48 L148.41,19.89 C148.47,20.07 148.47,20.25 148.47,20.43 C148.47,20.64 148.44,20.79 148.32,21.15 C148.08,21.84 147.6,22.83 147,23.58 C146.34,24.42 145.62,25.05 144.96,25.41 L145.8,27.39 C146.31,27.15 147.39,26.46 148.41,25.17 C150.12,22.98 151.11,19.47 152.01,15.81 L154.38,6.48 L152.1,6.48 L150.39,14.85 C150.15,15.9 149.91,17.01 149.76,17.82 L149.7,17.82 C149.52,16.92 149.37,15.96 149.1,14.82 L147.18,6.48 L144.75,6.48 Z M160.05,21 L160.05,6.33 L156.12,6.33 L156.12,21 L160.05,21 Z M158.04,0.3 C156.96,0.3 156,1.11 156.03,2.43 C156,3.69 156.9,4.56 157.98,4.56 C159.18,4.56 160.08,3.69 160.05,2.43 C160.05,1.11 159.18,0.3 158.04,0.3 L158.04,0.3 Z M162.81,21 L166.74,21 L166.74,12.06 C166.74,11.49 166.83,11.01 166.95,10.71 C167.22,9.84 167.76,9.39 168.42,9.39 C169.56,9.39 169.86,10.56 169.86,11.82 L169.86,21 L173.79,21 L173.79,11.58 C173.79,8.31 172.68,6.09 169.89,6.09 C168.36,6.09 167.1,6.84 166.32,8.01 L166.26,8.01 L166.08,6.33 L162.69,6.33 C162.72,7.71 162.81,9.12 162.81,10.74 L162.81,21 Z M175.71,20.34 C176.4,20.85 177.84,21.18 179.07,21.18 C182.1,21.18 184.26,19.56 184.26,16.56 C184.26,14.88 183.45,13.35 181.29,12.12 C179.91,11.31 179.58,10.95 179.58,10.29 C179.58,9.63 180.06,9.03 181.05,9.03 C181.83,9.03 182.52,9.3 183.09,9.63 L183.78,6.75 C183,6.39 182.04,6.09 180.81,6.09 C177.87,6.09 175.98,8.07 175.98,10.71 C175.98,12.06 176.55,13.59 178.95,14.94 C180.24,15.69 180.66,16.17 180.66,16.92 C180.66,17.79 180.09,18.24 179.07,18.24 C178.08,18.24 177,17.82 176.43,17.46 L175.71,20.34 Z M190.2,21 L190.2,6.33 L186.27,6.33 L186.27,21 L190.2,21 Z M188.19,0.3 C187.11,0.3 186.15,1.11 186.18,2.43 C186.15,3.69 187.05,4.56 188.13,4.56 C189.33,4.56 190.23,3.69 190.2,2.43 C190.2,1.11 189.33,0.3 188.19,0.3 L188.19,0.3 Z M200.37,6.33 L200.16,7.8 L200.1,7.8 C199.53,6.69 198.57,6.09 197.4,6.09 C194.67,6.09 192.45,8.91 192.45,13.8 C192.45,17.31 193.74,20.91 197.04,20.91 C198.15,20.91 199.17,20.37 199.68,19.44 L199.74,19.44 L199.74,20.34 C199.74,22.59 198.96,23.91 196.98,23.91 C195.84,23.91 194.91,23.61 194.16,23.28 L193.44,26.31 C194.49,26.76 195.75,27 197.1,27 C199.26,27 200.79,26.4 201.87,25.38 C203.07,24.24 203.64,22.5 203.64,19.35 L203.64,10.98 C203.64,9.21 203.73,7.65 203.79,6.33 L200.37,6.33 Z M199.74,15.6 C199.74,15.99 199.68,16.44 199.56,16.77 C199.26,17.55 198.75,17.82 198.24,17.82 C197.13,17.82 196.35,16.44 196.35,13.71 C196.35,11.31 196.92,9.39 198.33,9.39 C198.99,9.39 199.41,9.96 199.59,10.59 C199.68,10.89 199.74,11.28 199.74,11.67 L199.74,15.6 Z M206.37,21 L210.3,21 L210.3,11.88 C210.3,11.55 210.39,11.01 210.45,10.77 C210.75,9.78 211.32,9.39 211.98,9.39 C213.15,9.39 213.42,10.65 213.42,12.09 L213.42,21 L217.35,21 L217.35,12.09 C217.35,8.37 216.3,6.09 213.6,6.09 C212.88,6.09 212.19,6.27 211.62,6.6 C211.14,6.93 210.69,7.35 210.36,7.86 L210.3,7.86 L210.3,0.24 L206.37,0.24 L206.37,21 Z M220.8,3.3 L220.8,6.33 L219.06,6.33 L219.06,9.12 L220.8,9.12 L220.8,16.05 C220.8,18.36 221.25,19.47 222.06,20.25 C222.75,20.91 223.74,21.18 224.88,21.18 C225.93,21.18 226.74,21.06 227.28,20.91 L227.25,17.85 C226.92,17.91 226.62,17.94 226.23,17.94 C225.45,17.94 224.73,17.52 224.73,15.81 L224.73,9.12 L227.61,9.12 L227.61,6.33 L224.73,6.33 L224.73,2.37 L220.8,3.3 Z M228.6,20.34 C229.29,20.85 230.73,21.18 231.96,21.18 C234.99,21.18 237.15,19.56 237.15,16.56 C237.15,14.88 236.34,13.35 234.18,12.12 C232.8,11.31 232.47,10.95 232.47,10.29 C232.47,9.63 232.95,9.03 233.94,9.03 C234.72,9.03 235.41,9.3 235.98,9.63 L236.67,6.75 C235.89,6.39 234.93,6.09 233.7,6.09 C230.76,6.09 228.87,8.07 228.87,10.71 C228.87,12.06 229.44,13.59 231.84,14.94 C233.13,15.69 233.55,16.17 233.55,16.92 C233.55,17.79 232.98,18.24 231.96,18.24 C230.97,18.24 229.89,17.82 229.32,17.46 L228.6,20.34 Z" id="yourprivacyinsights" fill="#000000"></path>
                <g id="Logo" transform="translate(0.000000, 2.000000)">
                    <g id="Logo_logo-horizontal">
                        <g id="Layer_1">
                            <path d="M17.1006452,22.386129 L18.9014516,27.928871 C21.7342677,27.0013726 24.2003473,25.2001193 25.9456452,22.7837097 L22.6714516,20.4075806 C20.9513846,21.4027589 19.063097,22.0734102 17.1006452,22.386129 L17.1006452,22.386129 Z" id="Shape" fill="#81BB41"></path>
                            <path d="M14.5420968,22.5872581 C13.685311,22.5869454 12.8298589,22.5196978 11.9835484,22.386129 L10.1827419,27.928871 C13.0163264,28.8478793 16.0678671,28.8478793 18.9014516,27.928871 L17.1006452,22.386129 C16.2543347,22.5196978 15.3988826,22.5869454 14.5420968,22.5872581 L14.5420968,22.5872581 Z" id="Shape" fill="#97D34A"></path>
                            <path d="M6.41274194,20.4216129 L3.13854839,22.7977419 C4.88384626,25.2141515 7.34992588,27.0154049 10.1827419,27.9429032 L11.9835484,22.4001613 C10.0210966,22.0874424 8.13280895,21.4167912 6.41274194,20.4216129 L6.41274194,20.4216129 Z" id="Shape" fill="#81BB41"></path>
                            <path d="M14.5420968,6.5016129 C15.3925141,6.50136783 16.2416709,6.56704846 17.0819355,6.69806452 L18.8827419,1.15064516 C16.0606676,0.239708383 13.0235259,0.239708383 10.2014516,1.15064516 L12.0022581,6.69806452 C12.8425226,6.56704846 13.6916794,6.50136783 14.5420968,6.5016129 L14.5420968,6.5016129 Z" id="Shape" fill="#52C5D8"></path>
                            <path d="M12.0022581,6.69806452 L10.2014516,1.15064516 C7.3852502,2.07091262 4.93041402,3.85476024 3.18532258,6.24903226 L6.45951613,8.63919355 C8.17360326,7.66030171 10.0519619,7.00247991 12.0022581,6.69806452 L12.0022581,6.69806452 Z" id="Shape" fill="#3BAFC9"></path>
                            <path d="M6.45951613,8.63919355 L3.18532258,6.24903226 C1.42951071,8.64266183 0.478041581,11.5314597 0.467741935,14.5 L0.467741935,14.5 C1.9242875,12.0608969 3.98882366,10.0414872 6.45951613,8.63919355 L6.45951613,8.63919355 Z" id="Shape" fill="#2999BA"></path>
                            <path d="M22.6293548,8.63919355 L25.9035484,6.24903226 C24.158457,3.85476024 21.7036208,2.07091262 18.8874194,1.15064516 L17.0819355,6.69806452 C19.0338445,7.00192909 20.9138354,7.65976737 22.6293548,8.63919355 L22.6293548,8.63919355 Z" id="Shape" fill="#3BAFC9"></path>
                            <path d="M28.6024194,14.5 L28.6024194,14.5 C28.5991609,11.5282247 27.6525062,8.63421294 25.898871,6.235 L22.6246774,8.62516129 C25.0919747,10.0332818 27.1516726,12.0575232 28.6024194,14.5 L28.6024194,14.5 Z" id="Shape" fill="#2999BA"></path>
                            <polygon id="Shape" fill="#3DACA3" points="28.4971774 14.59 28.4971774 14.5 28.4971774 14.5"></polygon>
                            <path d="M22.676129,20.4216129 L25.9503226,22.7977419 C27.6920851,20.3976994 28.6287217,17.5075532 28.6258065,14.5420968 C27.1834756,16.9827532 25.1337227,19.0083345 22.676129,20.4216129 L22.676129,20.4216129 Z" id="Shape" fill="#3DACA3"></path>
                            <polygon id="Shape" fill="#3DACA3" points="0.348467742 14.5 0.348467742 14.56 0.348467742 14.5"></polygon>
                            <path d="M0.467741935,14.5420968 C0.464826698,17.5075532 1.40146332,20.3976994 3.14322581,22.7977419 L6.41741935,20.4216129 C3.95982571,19.0083345 1.91007283,16.9827532 0.467741935,14.5420968 L0.467741935,14.5420968 Z" id="Shape" fill="#3DACA3"></path>
                            <path d="M14.5420968,10.9030645 C14.1640231,10.9038966 13.7884068,10.9638689 13.428871,11.0808065 L12.5775806,8.46612903 C13.8547495,8.05345105 15.2294441,8.05345105 16.5066129,8.46612903 L15.6553226,11.0808065 C15.2957867,10.9638689 14.9201705,10.9038966 14.5420968,10.9030645 L14.5420968,10.9030645 Z" id="Shape" fill="#D1544E"></path>
                            <path d="M15.66,11.0808065 L16.5112903,8.46612903 C17.7853386,8.87821616 18.8978632,9.67988827 19.6919355,10.7580645 L17.4701613,12.3717742 C17.015564,11.7638256 16.3828644,11.312598 15.66,11.0808065 L15.66,11.0808065 Z" id="Shape" fill="#D1544E"></path>
                            <path d="M17.4701613,12.3858065 L19.6919355,10.7580645 C20.4895169,11.8430898 20.9219118,13.1533774 20.9267742,14.5 L18.181129,14.5 C18.1725544,13.7380064 17.9237526,12.9981484 17.4701613,12.3858065 L17.4701613,12.3858065 Z" id="Shape" fill="#EB5F54"></path>
                            <path d="M11.6140323,12.3858065 L9.39225806,10.7580645 C10.1854357,9.67388521 11.2999341,8.86706037 12.5775806,8.45209677 L13.428871,11.0667742 C12.7005434,11.3052034 12.0656455,11.7666498 11.6140323,12.3858065 L11.6140323,12.3858065 Z" id="Shape" fill="#D1544E"></path>
                            <path d="M11.6140323,12.3858065 C11.160441,12.9981484 10.9116391,13.7380064 10.9030645,14.5 L8.15741935,14.5 C8.16228177,13.1533774 8.59467668,11.8430898 9.39225806,10.7580645 L11.6140323,12.3858065 Z" id="Shape" fill="#EB5F54"></path>
                            <path d="M10.9030645,14.5420968 C10.9025038,15.302582 11.1414382,16.0439332 11.5859677,16.6609677 L9.35483871,18.2746774 C8.56724963,17.1862363 8.14477613,15.876241 8.14806452,14.5327419 C8.1513529,13.1892429 8.14806452,14.5327419 8.14806452,14.5046774 L10.8937097,14.5046774 C15.8283871,0.467741935 10.9030645,14.5327419 10.9030645,14.5420968 L10.9030645,14.5420968 Z" id="Shape" fill="#EB5F54"></path>
                            <path d="M18.181129,14.5420968 C0.467741935,0.467741935 18.181129,14.5420968 18.181129,14.5140323 L20.9267742,14.5140323 C35.8945161,0.467741935 20.9267742,14.5140323 20.9267742,14.5420968 C20.9300626,15.8855958 20.5075891,17.1955912 19.72,18.2840323 L17.4982258,16.6703226 C17.9446303,16.0506972 18.1836599,15.3057761 18.181129,14.5420968 L18.181129,14.5420968 Z" id="Shape" fill="#EB5F54"></path>
                            <path d="M17.4982258,16.6609677 L19.72,18.2746774 C18.9279148,19.3731762 17.807719,20.1920328 16.5206452,20.6133871 L15.6693548,17.9987097 C16.4053592,17.7579135 17.0458022,17.2894565 17.4982258,16.6609677 L17.4982258,16.6609677 Z" id="Shape" fill="#EB5F54"></path>
                            <path d="M13.4101613,17.9987097 L12.558871,20.6133871 C11.2717971,20.1920328 10.1516013,19.3731762 9.35951613,18.2746774 L11.5812903,16.6609677 C12.033714,17.2894565 12.6741569,17.7579135 13.4101613,17.9987097 L13.4101613,17.9987097 Z" id="Shape" fill="#EB5F54"></path>
                        </g>
                    </g>
                </g>
            </g>
        </g>
    </g>
</svg>

<svg id="Layer_1" data-name="Layer 1" xmlns="http://www.w3.org/2000/svg" viewBox="0 0 236.62 30.15"><defs><style>.cls-1{fill:#81bb41;}.cls-2{fill:#97d34a;}.cls-3{fill:#52c5d8;}.cls-4{fill:#3bafc9;}.cls-5{fill:#2999ba;}.cls-6{fill:#3daca3;}.cls-7{fill:#d1544e;}.cls-8{fill:#eb5f54;}</style></defs><title>logo</title><g id="Symbols"><g id="Menu-_-tabs_Menu-bar" data-name="Menu-&amp;-tabs/Menu-bar"><g id="logo"><path id="yourprivacyinsights" d="M42.15,6.33l4,13.59a1.75,1.75,0,0,1,.12.54,1.55,1.55,0,0,1-.21.63,5.28,5.28,0,0,1-1.23,1.74,5.92,5.92,0,0,1-1.95,1.23l1.2,3.39a7.81,7.81,0,0,0,3.33-2.31C49,23.25,50,20.4,50.7,17.64l3-11.31H49.86L48.63,14c-0.12.81-.24,1.65-0.36,2.4H48.21c-0.12-.78-0.24-1.59-0.39-2.46L46.38,6.33H42.15Zm18.12-.24c-2.91,0-5.67,2.34-5.67,7.62,0,4.77,2.1,7.53,5.61,7.53,2.22,0,5.61-1.5,5.61-7.62,0-4.62-2.1-7.53-5.55-7.53h0Zm0,3c1.32,0,1.65,2.55,1.65,4.56s-0.33,4.62-1.59,4.62-1.8-2.1-1.8-4.62c0-2,.3-4.56,1.74-4.56h0ZM78.78,6.33H74.85v9.36A2.94,2.94,0,0,1,74.61,17a1.39,1.39,0,0,1-1.26,1c-1.11,0-1.47-1.23-1.47-3.15V6.33h-4v8.88c0,4,1.14,6,3.93,6a4.14,4.14,0,0,0,3.39-1.8H75.3L75.51,21H78.9c-0.06-1.38-.12-2.91-0.12-4.47V6.33ZM81.57,21h4V13.56a6,6,0,0,1,.15-1.47,2.62,2.62,0,0,1,2.4-2.1,3.56,3.56,0,0,1,.84.06V6.15a3.31,3.31,0,0,0-.84-0.06,3.41,3.41,0,0,0-2.91,2.37H85.08L84.87,6.33H81.45c0.06,1.35.12,2.94,0.12,4.41V21Zm9.06,5.76h2.31v-7.2H93a2.74,2.74,0,0,0,2.52,1.68c2.28,0,4.5-2.16,4.5-7.53,0-4.77-1.68-7.47-4.2-7.47a3.32,3.32,0,0,0-3.06,2.1H92.7L92.58,6.48H90.51c0,1,.12,2.31.12,4.53V26.76ZM92.94,12A6.7,6.7,0,0,1,93,10.86c0.15-1.32,1.08-2.64,2.13-2.64,1.83,0,2.55,2.52,2.55,5.52s-0.6,5.58-2.52,5.58c-0.63,0-1.68-.39-2.13-2.46a4.88,4.88,0,0,1-.09-1.2V12Zm9.66,9h2.31V13a8.84,8.84,0,0,1,.09-1.32c0.24-1.68,1.32-3,2.79-3a2.42,2.42,0,0,1,.48,0V6.27c-0.15,0-.3,0-0.48,0a3.54,3.54,0,0,0-3.06,2.52h-0.06l-0.12-2.28h-2.07c0,1.08.12,2.52,0.12,3.75V21Zm9.78,0V6.48h-2.31V21h2.31Zm-1.2-19.77a1.39,1.39,0,0,0-1.35,1.5,1.36,1.36,0,0,0,1.32,1.5,1.35,1.35,0,0,0,1.41-1.5,1.36,1.36,0,0,0-1.38-1.5h0Zm3.18,5.25L118.14,21h2.07L124,6.48h-2.28l-1.8,8.16c-0.21,1.11-.45,2.34-0.6,3.54h-0.09c-0.18-1.26-.42-2.55-0.63-3.54l-1.83-8.16h-2.4ZM133.83,21a23,23,0,0,1-.15-3.3V11.43c0-3.27-1.26-5.19-4.17-5.19a6.25,6.25,0,0,0-3.39,1l0.51,1.62a4.37,4.37,0,0,1,2.4-.75c1.83,0,2.31,1.35,2.31,3.3v0.45c-3.27,0-6.18,1.65-6.18,5.28,0,2.49,1.5,4.14,3.45,4.14a3.26,3.26,0,0,0,2.88-1.77h0.09L131.73,21h2.1Zm-2.43-4.56a3.82,3.82,0,0,1-.06.81,2.31,2.31,0,0,1-2.16,2.19c-0.81,0-1.77-.69-1.77-2.58,0-3.15,2.79-3.36,4-3.36v2.94Zm12.3,2.43a4,4,0,0,1-1.68.39c-2.13,0-3.42-2-3.42-5.43,0-2.85,1-5.61,3.36-5.61a3.77,3.77,0,0,1,1.65.39l0.45-1.89a4.67,4.67,0,0,0-2-.45c-3.63,0-5.73,3.39-5.73,7.56,0,4.8,2.13,7.35,5.31,7.35a5,5,0,0,0,2.4-.54Zm1.05-12.39,3.66,13.41a1.66,1.66,0,0,1,.06.54,2,2,0,0,1-.15.72A8.88,8.88,0,0,1,147,23.58a7,7,0,0,1-2,1.83l0.84,2a8,8,0,0,0,2.61-2.22c1.71-2.19,2.7-5.7,3.6-9.36l2.37-9.33H152.1l-1.71,8.37c-0.24,1-.48,2.16-0.63,3H149.7c-0.18-.9-0.33-1.86-0.6-3l-1.92-8.34h-2.43ZM160.05,21V6.33h-3.93V21h3.93ZM158,0.3a2,2,0,0,0-2,2.13A2,2,0,0,0,158,4.56a2,2,0,0,0,2.07-2.13A2,2,0,0,0,158,.3h0ZM162.81,21h3.93V12.06a3.85,3.85,0,0,1,.21-1.35,1.59,1.59,0,0,1,1.47-1.32c1.14,0,1.44,1.17,1.44,2.43V21h3.93V11.58c0-3.27-1.11-5.49-3.9-5.49A4.21,4.21,0,0,0,166.32,8h-0.06l-0.18-1.68h-3.39c0,1.38.12,2.79,0.12,4.41V21Zm12.9-.66a6.46,6.46,0,0,0,3.36.84c3,0,5.19-1.62,5.19-4.62,0-1.68-.81-3.21-3-4.44-1.38-.81-1.71-1.17-1.71-1.83A1.29,1.29,0,0,1,181.05,9a4.07,4.07,0,0,1,2,.6l0.69-2.88a6.9,6.9,0,0,0-3-.66A4.52,4.52,0,0,0,176,10.71c0,1.35.57,2.88,3,4.23,1.29,0.75,1.71,1.23,1.71,2a1.32,1.32,0,0,1-1.59,1.32,5.49,5.49,0,0,1-2.64-.78ZM190.2,21V6.33h-3.93V21h3.93Zm-2-20.7a2,2,0,0,0-2,2.13,2,2,0,0,0,2,2.13,2,2,0,0,0,2.07-2.13,2,2,0,0,0-2-2.13h0Zm12.18,6L200.16,7.8H200.1a2.94,2.94,0,0,0-2.7-1.71c-2.73,0-4.95,2.82-4.95,7.71,0,3.51,1.29,7.11,4.59,7.11a3,3,0,0,0,2.64-1.47h0.06v0.9c0,2.25-.78,3.57-2.76,3.57a6.87,6.87,0,0,1-2.82-.63l-0.72,3a9.37,9.37,0,0,0,3.66.69,6.62,6.62,0,0,0,4.77-1.62c1.2-1.14,1.77-2.88,1.77-6V11c0-1.77.09-3.33,0.15-4.65h-3.42Zm-0.63,9.27a3.68,3.68,0,0,1-.18,1.17,1.4,1.4,0,0,1-1.32,1c-1.11,0-1.89-1.38-1.89-4.11,0-2.4.57-4.32,2-4.32a1.43,1.43,0,0,1,1.26,1.2,3.91,3.91,0,0,1,.15,1.08V15.6Zm6.63,5.4h3.93V11.88a5.84,5.84,0,0,1,.15-1.11A1.61,1.61,0,0,1,212,9.39c1.17,0,1.44,1.26,1.44,2.7V21h3.93V12.09c0-3.72-1.05-6-3.75-6a4,4,0,0,0-2,.51,4.58,4.58,0,0,0-1.26,1.26H210.3V0.24h-3.93V21ZM220.8,3.3v3h-1.74V9.12h1.74V16c0,2.31.45,3.42,1.26,4.2a4,4,0,0,0,2.82.93,9.26,9.26,0,0,0,2.4-.27l0-3.06a5.38,5.38,0,0,1-1,.09c-0.78,0-1.5-.42-1.5-2.13V9.12h2.88V6.33h-2.88v-4Zm7.8,17a6.46,6.46,0,0,0,3.36.84c3,0,5.19-1.62,5.19-4.62,0-1.68-.81-3.21-3-4.44-1.38-.81-1.71-1.17-1.71-1.83A1.29,1.29,0,0,1,233.94,9a4.07,4.07,0,0,1,2,.6l0.69-2.88a6.9,6.9,0,0,0-3-.66,4.52,4.52,0,0,0-4.83,4.62c0,1.35.57,2.88,3,4.23,1.29,0.75,1.71,1.23,1.71,2A1.32,1.32,0,0,1,232,18.24a5.49,5.49,0,0,1-2.64-.78Z" transform="translate(-0.53 -0.24)"/></g></g></g><path class="cls-1" d="M17.16,24.16L19,29.7a14.1,14.1,0,0,0,7-5.13l-3.27-2.38A16.22,16.22,0,0,1,17.16,24.16Z" transform="translate(-0.53 -0.24)"/><path class="cls-2" d="M14.61,24.36a16.45,16.45,0,0,1-2.56-.2l-1.8,5.54a14.13,14.13,0,0,0,8.72,0l-1.8-5.54A16.45,16.45,0,0,1,14.61,24.36Z" transform="translate(-0.53 -0.24)"/><path class="cls-1" d="M6.48,22.19L3.21,24.57a14.1,14.1,0,0,0,7,5.13L12,24.16A16.22,16.22,0,0,1,6.48,22.19Z" transform="translate(-0.53 -0.24)"/><path class="cls-3" d="M14.61,8.27a16.45,16.45,0,0,1,2.54.2l1.8-5.55a14.13,14.13,0,0,0-8.68,0l1.8,5.55A16.45,16.45,0,0,1,14.61,8.27Z" transform="translate(-0.53 -0.24)"/><path class="cls-4" d="M12.07,8.47l-1.8-5.55a14.1,14.1,0,0,0-7,5.1l3.29,2.39A16.22,16.22,0,0,1,12.07,8.47Z" transform="translate(-0.53 -0.24)"/><path class="cls-5" d="M6.52,10.41L3.24,8a14,14,0,0,0-2.7,8.26h0A16.42,16.42,0,0,1,6.52,10.41Z" transform="translate(-0.53 -0.24)"/><polygon class="cls-1" points="14.07 16.04 14.07 16.04 14.07 16.04 14.07 16.04"/><path class="cls-4" d="M22.69,10.41L26,8a14.1,14.1,0,0,0-7-5.1l-1.8,5.55A16.22,16.22,0,0,1,22.69,10.41Z" transform="translate(-0.53 -0.24)"/><polygon class="cls-1" points="14.07 16.04 14.07 16.04 14.07 16.04 14.07 16.04"/><path class="cls-5" d="M28.66,16.28h0A14,14,0,0,0,26,8l-3.29,2.39A16.42,16.42,0,0,1,28.66,16.28Z" transform="translate(-0.53 -0.24)"/><polygon class="cls-1" points="14.07 16.04 14.07 16.04 14.07 16.04 14.07 16.04"/><path class="cls-6" d="M0.53,16.28v0l0,0h0Z" transform="translate(-0.53 -0.24)"/><path class="cls-6" d="M0.53,16.31a14,14,0,0,0,2.67,8.25l3.27-2.38A16.42,16.42,0,0,1,.53,16.31Z" transform="translate(-0.53 -0.24)"/><path class="cls-6" d="M22.74,22.19L26,24.57a14,14,0,0,0,2.67-8.25A16.42,16.42,0,0,1,22.74,22.19Z" transform="translate(-0.53 -0.24)"/><path class="cls-6" d="M28.66,16.28l0,0v0h0Z" transform="translate(-0.53 -0.24)"/><path class="cls-7" d="M16.57,10.24a6.38,6.38,0,0,0-7.11,2.3l2.22,1.61a3.63,3.63,0,0,1,5.85,0l2.22-1.61A6.39,6.39,0,0,0,16.57,10.24Z" transform="translate(-0.53 -0.24)"/><path class="cls-8" d="M21,16.28a6.35,6.35,0,0,0-1.23-3.74l-2.22,1.61a3.62,3.62,0,0,1,.71,2.13v0a3.65,3.65,0,0,1-2.51,3.46l0.85,2.61A6.39,6.39,0,0,0,21,16.31v0Z" transform="translate(-0.53 -0.24)"/><path class="cls-8" d="M11.65,18.43A3.62,3.62,0,0,1,11,16.31v0a3.62,3.62,0,0,1,.71-2.13L9.46,12.54a6.35,6.35,0,0,0-1.23,3.74v0a6.39,6.39,0,0,0,4.4,6.07l0.85-2.61A3.65,3.65,0,0,1,11.65,18.43Z" transform="translate(-0.53 -0.24)"/><polygon class="cls-1" points="14.07 16.04 14.07 16.04 14.07 16.04 14.07 16.04"/><polygon class="cls-1" points="14.07 16.04 14.07 16.04 14.07 16.04 14.07 16.04"/><polygon class="cls-1" points="14.07 16.04 14.07 16.04 14.07 16.04 14.07 16.04"/></svg>
